!!! OTL: Berkowitz459
!!! Chapter: 1
!!! Section: IV
!!! Page: 114
!!! Mode: 
!!! Encoder: DJB
**kern
*staff1
*I"Piano
=1-
*clefF4
*k[b-e-a-d-g-]
*b-:
*M4/4
4r
4r
4r
8r
8En\
=2
8F\L
[8G-\J
12G-\L]
12F\
12En\J
8F\L
[8BB-\J
12BB-\L]
12D-\
12F\J
=3
8B-\L
[8c-\J
12c-\L]
12B-\
12F\J
[4A-\
8A-\L]
8G-\J
=4
8r
4F\
8En\
12E\L
12d-\
12c\J
12B-\L
12A-\
12G-\J
=5
8F\L
8En\J
4c\
8E-\L
8D-\J
4B-\
=6
!!linebreak:original
8r
4C/
8G-\
12F\L
12E-\
12D-\J
[8C/L
16C/L]
16D-/JJ
=7
2.BB-/
4r
==
*-
